assets/svg/flower-o.svg

<?xml version="1.0" encoding="UTF-8"?>
<svg width="1000px" height="1000px" viewBox="0 0 1000 1000" version="1.1" xmlns="http://www.w3.org/2000/svg" xmlns:xlink="http://www.w3.org/1999/xlink">
    <!-- Generator: sketchtool 52.4 (67378) - http://www.bohemiancoding.com/sketch -->
    <title>flower-o</title>
    <desc>Created with sketchtool.</desc>
    <g id="新版图标" stroke="none" stroke-width="1" fill="none" fill-rule="evenodd">
        <g id="flower-o" fill="#323233" fill-rule="nonzero">
            <g id="直角-消息类型－商品评价">
                <path d="M288.59497,458.443116 C295.897724,535.749535 358.548324,596.144167 436.070711,600.608235 L493.503076,603.915673 L565.329778,600.12642 C644.969959,595.924963 708.846933,532.757241 713.937442,453.168954 C718.974703,374.409839 721.641114,314.352626 721.995779,273.92092 C698.431428,286.418296 687.663373,291.473748 672.836079,295.883023 C638.648918,306.049448 604.809382,301.201706 582.384484,269.274545 C580.715376,266.898175 568.222117,248.894535 564.039238,242.958589 C556.035575,231.600547 548.920544,221.848884 541.863258,212.674804 C528.068634,194.742557 515.555169,180.472501 504.621877,170.478959 C497.215331,163.709029 492.462874,160.673646 493.46182,159.814166 C493.749021,161.628986 481.954941,171.578076 468.120908,189.281498 C451.539064,210.501297 434.583153,238.712219 423.915176,261.175629 C405.61744,299.704918 368.736502,309.057887 332.017031,299.274655 C316.048672,295.020177 305.530561,290.114309 277.842183,275.755729 C277.343695,312.608039 280.762904,375.533441 288.59497,458.443116 Z M493.46182,159.814166 C493.654064,159.648762 494.059315,159.563944 494.699649,159.548603 C494.865115,159.544638 494.884902,159.642474 494.771073,159.841547 L493.46182,159.814166 Z M527.581885,657.75064 L527.581885,908.017079 L472.026329,908.017079 L472.026329,658.326464 L432.876647,656.071896 C327.959398,650.030316 243.169077,568.293186 233.285646,463.667914 C220.282419,326.016709 218.542125,244.668626 228.064764,219.623664 C247.796084,167.729421 353.462885,280.021834 373.731237,237.343046 C393.99959,194.664258 448.555403,105.082627 493.369033,104.008984 C538.182663,102.935342 600.475672,198.374116 627.846546,237.343046 C655.21742,276.311976 770.861698,147.704634 776.573205,228.524483 C779.163222,265.174149 776.765393,341.237629 769.379717,456.714921 C762.490301,564.428476 676.040339,649.918641 568.256569,655.604827 L527.581885,657.75064 Z M418.66977,881.630797 L366.158226,899.767984 C328.64367,791.15427 288.005403,741.472781 248.819559,742.94221 C238.363194,742.938049 224.742674,750.559389 210.579927,764.254153 C205.166256,769.488939 200.114341,775.167208 195.487322,780.988987 C192.977371,784.147041 188.114187,790.768839 187.779855,791.168647 L145.161693,755.530016 C127.569178,776.567879 159.589641,736.279294 171.9616,724.316145 C195.500425,701.555118 220.841576,687.375517 247.775208,687.406714 C318.828259,684.705136 373.91225,752.046951 418.66977,881.630797 Z M584.444444,881.630797 C629.201965,752.046951 684.285955,684.705136 755.339006,687.406714 C782.272638,687.375517 807.613789,701.555118 831.152615,724.316145 C843.524574,736.279294 875.545036,776.567879 857.952521,755.530016 L815.334359,791.168647 C815.000028,790.768839 810.136843,784.147041 807.626893,780.988987 C802.999873,775.167208 797.947958,769.488939 792.534287,764.254153 C778.37154,750.559389 764.751021,742.938049 754.294656,742.94221 C715.108812,741.472781 674.470544,791.15427 636.955988,899.767984 L584.444444,881.630797 Z" id="直角-消息类型－商品评价-线"></path>
            </g>
        </g>
    </g>
</svg>

<svg width="1000" height="1000" xmlns="http://www.w3.org/2000/svg"><path d="M288.595 458.443c7.303 77.307 69.953 137.701 147.476 142.165l57.432 3.308 71.827-3.79c79.64-4.201 143.517-67.369 148.607-146.957 5.038-78.76 7.704-138.816 8.059-179.248-23.565 12.497-34.333 17.553-49.16 21.962-34.187 10.166-68.027 5.319-90.452-26.608-1.669-2.377-14.162-20.38-18.345-26.316-8.003-11.358-15.118-21.11-22.176-30.284-13.794-17.932-26.308-32.202-37.241-42.196-7.407-6.77-12.16-9.805-11.16-10.665.287 1.815-11.507 11.764-25.341 29.467-16.582 21.22-33.538 49.431-44.206 71.895-18.298 38.529-55.178 47.882-91.898 38.099-15.968-4.255-26.486-9.16-54.175-23.52-.498 36.853 2.92 99.778 10.753 182.688zm204.867-298.629c.192-.165.597-.25 1.238-.265.165-.004.185.093.071.293l-1.31-.028zm34.12 497.937v250.266h-55.556v-249.69l-39.15-2.255c-104.917-6.042-189.707-87.779-199.59-192.404-13.004-137.651-14.744-219-5.221-244.044 19.731-51.895 125.398 60.398 145.666 17.719C394 194.664 448.555 105.083 493.37 104.009c44.814-1.074 107.107 94.365 134.478 133.334 27.37 38.969 143.015-89.638 148.726-8.819 2.59 36.65.192 112.714-7.193 228.19-6.89 107.714-93.34 193.205-201.123 198.89l-40.675 2.147zM418.67 881.63l-52.512 18.137c-37.514-108.614-78.153-158.295-117.338-156.826-10.457-.004-24.077 7.617-38.24 21.312-5.414 5.235-10.466 10.913-15.093 16.735-2.51 3.158-7.373 9.78-7.707 10.18l-42.618-35.639c-17.593 21.038 14.428-19.25 26.8-31.214 23.538-22.76 48.88-36.94 75.813-36.91 71.053-2.7 126.137 64.641 170.895 194.225zm165.774 0c44.758-129.584 99.842-196.926 170.895-194.224 26.934-.031 52.275 14.148 75.814 36.91 12.372 11.962 44.392 52.25 26.8 31.213l-42.619 35.639c-.334-.4-5.197-7.022-7.707-10.18-4.627-5.822-9.679-11.5-15.093-16.735-14.162-13.695-27.783-21.316-38.24-21.312-39.185-1.47-79.823 48.212-117.338 156.826l-52.512-18.137z" fill="#323233" fill-rule="nonzero"/></svg>
